X:541
T: MAG AUCH DIE LIEBE WEINEN
N: F1053
O: Europa, Mitteleuropa, Deutschland
R: Trost - Lied, religioes, Pilger
M: 4/4
L: 1/16
K: Ab
E4 | A6A2G4A4 | =A6B2B4
E4 | e8-e2c2B3d | c8z4
A4 | f6f2e4e4 | =d12
_d4 | c4B4A4G2B2 | B6A2A4

